X: 2
T: I'll Buy Boots For Maggie
R: polka
M: 2/4
L: 1/8
K: Ador
|:"Am"E2 AB|cB AB|"F"=F2 AB|cB AB|"D"^F2 AB|cB AB|"Em"EG/E/ DB,|"Am"B,A, A,2:|
|:"Am"A,>B, CD|EG GA|"Em"EG/E/ DB,|A,B, G,B,|"Am"A,>B, CD|EG GA|"Em"EG/E/ DB,|"Am"B,A, A,2:|